src/icons/svg/object-group.svg

<?xml version="1.0"?><svg xmlns="http://www.w3.org/2000/svg" width="40" height="40" viewBox="0 0 40 40"><path  d="m39.8 10.1h-2.5v19.8h2.5v7.5h-7.5v-2.5h-24.8v2.5h-7.5v-7.5h2.5v-19.8h-2.5v-7.5h7.5v2.5h24.8v-2.5h7.5v7.5z m-5-5v2.5h2.5v-2.5h-2.5z m-32.3 0v2.5h2.5v-2.5h-2.5z m2.5 29.8v-2.5h-2.5v2.5h2.5z m27.3-2.5v-2.5h2.5v-19.8h-2.5v-2.5h-24.8v2.5h-2.5v19.8h2.5v2.5h24.8z m5 2.5v-2.5h-2.5v2.5h2.5z m-12.5-19.9h7.5v14.9h-17.4v-4.9h-7.4v-14.9h17.3v4.9z m-14.9 7.5h12.5v-10h-12.5v10z m19.9 5v-10h-5v7.5h-7.4v2.5h12.4z"></path></svg>

<svg xmlns="http://www.w3.org/2000/svg" width="40" height="40" viewBox="0 0 40 40"><path d="M39.8 10.1h-2.5v19.8h2.5v7.5h-7.5v-2.5H7.5v2.5H0v-7.5h2.5V10.1H0V2.6h7.5v2.5h24.8V2.6h7.5v7.5zm-5-5v2.5h2.5V5.1h-2.5zm-32.3 0v2.5H5V5.1H2.5zM5 34.9v-2.5H2.5v2.5H5zm27.3-2.5v-2.5h2.5V10.1h-2.5V7.6H7.5v2.5H5v19.8h2.5v2.5h24.8zm5 2.5v-2.5h-2.5v2.5h2.5zM24.8 15h7.5v14.9H14.9V25H7.5V10.1h17.3V15zM9.9 22.5h12.5v-10H9.9v10zm19.9 5v-10h-5V25h-7.4v2.5h12.4z"/></svg>
